X: 179
T: Shav el Admati
C: Avihu Medina 1981
O: Israel
F: http://www.youtube.com/watch?v=gjF74VUKuwQ
F: http://www.youtube.com/watch?v=3AkISFLw7EQ
M: 4/4
L: 1/8
Q: 1/4=200
K: Bm octave=-1
%%MIDI program 41
%%MIDI chordprog 24
%%MIDI gchord gi
|:"Bm"F2 B2 B2 B2|B2 c2 B2 A2|B2 c2 B2 A2|B2 c2 B2 A2|
  z2 B2 B2 e2   |d4 c2 B2   |[1 c4 B2 A2|dc B4 z2   :|
  [2 c2 A2 B2 c2|e2 d4 d2   | d2 f2 e4  |B4 z2 d2   |
  d2 f2 e4      |B4 z2 A2   |d2 c2 d2 d2|c2 B2 c4   |
  B2 A2 dc B2-  |B4 z4      |:e4 B2 e2  |d6 d2      |
  e4 B2 e2      |d6 A2      |d2 d2 c2 B2|c2 c2 A2 z2|
  A2 B2 c2 d2   |B4 z4      :|
 



